!!!OTL@@DE: Vetter Michel
!!!ONB: Volkslied (Mitte des 18. Jahrh.)
!!!OMD: Allegretto
!!!LDT: 1797
!!!OCL: Erk, Ludwig
!!!GCO: Deutscher Liederschatz, Band 1
**kern	**kern	**kern
*staff3	*staff2	*staff1
*Ipiano	*Ipiano	*Ivox
*clefF4	*clefG2	*clefG2
*k[b-]	*k[b-]	*k[b-]
*F:	*F:	*F:
*met(C)	*met(C)	*met(C)
*M4/4	*M4/4	*M4/4
*MM112	*MM112	*MM112
4F\	8A/ 8f/L	8f/L
.	8c/ 8g/J	8g/J
=1	=1	=1
4FF/	4f/ 4a/	4a/
4F\	4A/ 4c/ 4f/	4f/
4F\	4A/ 4c/ 4f/	4f/
4FF/	8e/ 8g/L	8g/L
.	8f/ 8a/J	8a/J
=2	=2	=2
4CC/	4c/ 4g/ 4b-/	4b-\
4C/	4c/ 4e/ 4g/	4g/
4C/	4c/ 4e/ 4g/	4g/
4G/	8cc/L	8cc\L
.	8b-/J	8b-\J
=3	=3	=3
4FF/ 4F/	4c/ 4f/ 4a/	4a/
4F\	4A/ 4c/ 4f/	4f/
4F\	4A/ 4c/ 4f/	4f/
8E\L	8e/L	8e/
8F\J	8f/J	8f/
=4	=4	=4
(8G\L	(8g/L	8g/L
8F\)	8f/)	8f/J
(8E\	(8e/	8e/L
8D\J)	8d/J)	8d/J
4C/	4c/	4c/
4F\	8A/ 8f/L	8f/L
.	8c/ 8g/J	8g/J
=5	=5	=5
4FF/	4c/ 4f/ 4a/	4a/
4F\	4A/ 4c/ 4f/	4f/
4F\	4A/ 4c/ 4f/	4f/
4FF/	8e/ 8g/L	8g/L
.	8f/ 8a/J	8a/J
=6	=6	=6
4CC/	4c/ 4g/ 4b-/	4b-\
4C/	4c/ 4e/ 4g/	4g/
4C/	4c/ 4e/ 4g/	4g/
8G/L	8e/ 8cc/L	8cc\L
8E/J	8g/ 8b-/J	8b-\J
=7	=7	=7
4F\	4c/ 4f/ 4a/	4a/
4AA/	4c/ 4f/	4f/
4BB-/	4B-/ 4d/ 4g/	4g/
4C/	4G/ 4B-/ 4e/	4e/
=8	=8	=8
4FF/ 4C/	4A/ 4f/	4f/
4FF/ 4F/	4A/ 4c/ 4f/	4r
4FF/ 4F/	4A/ 4c/ 4f/	4r
4r	8c/L	8a/L
.	8B-/ 8d/J	8b-/J
=9	=9	=9
4FF/	4A/ 4e-/	4cc'\
4F\	4c/ 4e-/ 4a/	4cc'\
4F\	4c/ 4e-/ 4a/	4cc'\
4FF/	4c/ 4e-/ 4a/	4ee-'\
=10	=10	=10
4BB-\ 4F\	4B-/ 4d/ 4b-/	4dd'\
4BB-\ 4B-\	4d/ 4f/	4b-'\
4BB-\ 4F\	4B-/ 4d/	4b-'\
4r	8B-/ 8d/L	8b-\L
.	8c/ 8e-/J	8cc\J
=11	=11	=11
4GG/	4Bn/ 4f/	4dd'\
4G\	4d/ 4f/ 4bn/	4dd'\
4G\	4d/ 4f/ 4b/	4dd'\
4GG/	4d/ 4f/ 4b/	4ff\
=12	=12	=12
4C/	4en/ 4cc/	4een'\
4C\ 4c\	4e/ 4g/	4cc'\
4C\ 4G\	4c/ 4e/	4cc'\
4F\	8A/ 8f/L	8f/L
.	8c/ 8g/J	8g/J
=13	=13	=13
4FF/	4f/ 4a/	4a/
(8F\L	4A/ 4c/ 4f/	4f/
8E\J	.	.
8D/L	4A/ 4d/ 4f/	4f/
8C/	.	.
8BB-/	8g/L	8g/
8AA/J)	8f#/ 8a/J	8a/
=14	=14	=14
4GG/	4d/ 4g/ 4b-/	4b-\
(8G\L	4B-/ 4d/ 4g/	4g/
8Fn\J	.	.
8E\L	4c/ 4e/ 4g/	4g/
8D\	.	.
8C\	8e/ [8g/ 8cc/L	8cc\
8E\J)	8c/ 8g/] 8b-/J	8b-\
=15	=15	=15
4F\	4c/ 4f/ 4a/	4a/
4DD/ 4D/	4d/ 4f/ 4a/	4f/
4BBB-/ 4BB-/	4d/ 4f/ 4g/	8g/L
.	.	8f/J
4CC/ 4C/	4B-/ 4c/ 4e/	8g/L
.	.	8a/J
=16	=16	=16
4FFF/ 4FF/	4A/ 4c/ 4f/	2f/
4FF/ 4F/	4A/ 4c/ 4f/	.
4FF;/ 4F;/	4A;/ 4c;/ 4f;/	4r;
==	==	==
*-	*-	*-
!!!ENC: Craig Stuart Sapp
!!!END: 2004/05/26/
!!!EFL: 049/651
